topics/special-relativity/Latex/images/svg/Time_dilation_rest_frame.svg

<?xml version="1.0" encoding="UTF-8"?>
<svg xmlns="http://www.w3.org/2000/svg" xmlns:xlink="http://www.w3.org/1999/xlink" width="129.377pt" height="155.785pt" viewBox="0 0 129.377 155.785" version="1.1">
<defs>
<g>
<symbol overflow="visible" id="glyph0-0">
<path style="stroke:none;" d=""/>
</symbol>
<symbol overflow="visible" id="glyph0-1">
<path style="stroke:none;" d="M 2.328125 -4.4375 C 2.328125 -4.625 2.328125 -4.625 2.125 -4.625 C 1.671875 -4.1875 1.046875 -4.1875 0.765625 -4.1875 L 0.765625 -3.9375 C 0.921875 -3.9375 1.390625 -3.9375 1.765625 -4.125 L 1.765625 -0.578125 C 1.765625 -0.34375 1.765625 -0.25 1.078125 -0.25 L 0.8125 -0.25 L 0.8125 0 C 0.9375 0 1.796875 -0.03125 2.046875 -0.03125 C 2.265625 -0.03125 3.140625 0 3.296875 0 L 3.296875 -0.25 L 3.03125 -0.25 C 2.328125 -0.25 2.328125 -0.34375 2.328125 -0.578125 Z M 2.328125 -4.4375 "/>
</symbol>
<symbol overflow="visible" id="glyph0-2">
<path style="stroke:none;" d="M 3.515625 -1.265625 L 3.28125 -1.265625 C 3.265625 -1.109375 3.1875 -0.703125 3.09375 -0.640625 C 3.046875 -0.59375 2.515625 -0.59375 2.40625 -0.59375 L 1.125 -0.59375 C 1.859375 -1.234375 2.109375 -1.4375 2.515625 -1.765625 C 3.03125 -2.171875 3.515625 -2.609375 3.515625 -3.265625 C 3.515625 -4.109375 2.78125 -4.625 1.890625 -4.625 C 1.03125 -4.625 0.4375 -4.015625 0.4375 -3.375 C 0.4375 -3.03125 0.734375 -2.984375 0.8125 -2.984375 C 0.96875 -2.984375 1.171875 -3.109375 1.171875 -3.359375 C 1.171875 -3.484375 1.125 -3.734375 0.765625 -3.734375 C 0.984375 -4.21875 1.453125 -4.375 1.78125 -4.375 C 2.484375 -4.375 2.84375 -3.828125 2.84375 -3.265625 C 2.84375 -2.65625 2.40625 -2.1875 2.1875 -1.9375 L 0.515625 -0.265625 C 0.4375 -0.203125 0.4375 -0.1875 0.4375 0 L 3.3125 0 Z M 3.515625 -1.265625 "/>
</symbol>
<symbol overflow="visible" id="glyph1-0">
<path style="stroke:none;" d=""/>
</symbol>
<symbol overflow="visible" id="glyph1-1">
<path style="stroke:none;" d="M 3.953125 -3.78125 C 3.78125 -3.78125 3.65625 -3.78125 3.515625 -3.65625 C 3.34375 -3.5 3.328125 -3.328125 3.328125 -3.265625 C 3.328125 -3.015625 3.515625 -2.90625 3.703125 -2.90625 C 3.984375 -2.90625 4.25 -3.15625 4.25 -3.546875 C 4.25 -4.03125 3.78125 -4.40625 3.078125 -4.40625 C 1.734375 -4.40625 0.40625 -2.984375 0.40625 -1.578125 C 0.40625 -0.671875 0.984375 0.109375 2.03125 0.109375 C 3.453125 0.109375 4.28125 -0.953125 4.28125 -1.0625 C 4.28125 -1.125 4.234375 -1.203125 4.171875 -1.203125 C 4.109375 -1.203125 4.09375 -1.171875 4.03125 -1.09375 C 3.25 -0.109375 2.15625 -0.109375 2.046875 -0.109375 C 1.421875 -0.109375 1.140625 -0.59375 1.140625 -1.203125 C 1.140625 -1.609375 1.34375 -2.578125 1.6875 -3.1875 C 2 -3.765625 2.546875 -4.1875 3.09375 -4.1875 C 3.421875 -4.1875 3.8125 -4.0625 3.953125 -3.78125 Z M 3.953125 -3.78125 "/>
</symbol>
<symbol overflow="visible" id="glyph1-2">
<path style="stroke:none;" d="M 2.046875 -3.984375 L 2.984375 -3.984375 C 3.1875 -3.984375 3.296875 -3.984375 3.296875 -4.1875 C 3.296875 -4.296875 3.1875 -4.296875 3.015625 -4.296875 L 2.140625 -4.296875 C 2.5 -5.71875 2.546875 -5.90625 2.546875 -5.96875 C 2.546875 -6.140625 2.421875 -6.234375 2.25 -6.234375 C 2.21875 -6.234375 1.9375 -6.234375 1.859375 -5.875 L 1.46875 -4.296875 L 0.53125 -4.296875 C 0.328125 -4.296875 0.234375 -4.296875 0.234375 -4.109375 C 0.234375 -3.984375 0.3125 -3.984375 0.515625 -3.984375 L 1.390625 -3.984375 C 0.671875 -1.15625 0.625 -0.984375 0.625 -0.8125 C 0.625 -0.265625 1 0.109375 1.546875 0.109375 C 2.5625 0.109375 3.125 -1.34375 3.125 -1.421875 C 3.125 -1.53125 3.046875 -1.53125 3.015625 -1.53125 C 2.921875 -1.53125 2.90625 -1.5 2.859375 -1.390625 C 2.4375 -0.34375 1.90625 -0.109375 1.5625 -0.109375 C 1.359375 -0.109375 1.25 -0.234375 1.25 -0.5625 C 1.25 -0.8125 1.28125 -0.875 1.3125 -1.046875 Z M 2.046875 -3.984375 "/>
</symbol>
<symbol overflow="visible" id="glyph1-3">
<path style="stroke:none;" d="M 3.734375 -6.03125 C 3.8125 -6.390625 3.84375 -6.5 4.78125 -6.5 C 5.078125 -6.5 5.15625 -6.5 5.15625 -6.6875 C 5.15625 -6.8125 5.046875 -6.8125 5 -6.8125 C 4.671875 -6.8125 3.859375 -6.78125 3.53125 -6.78125 C 3.234375 -6.78125 2.5 -6.8125 2.203125 -6.8125 C 2.140625 -6.8125 2.015625 -6.8125 2.015625 -6.609375 C 2.015625 -6.5 2.109375 -6.5 2.296875 -6.5 C 2.3125 -6.5 2.5 -6.5 2.671875 -6.484375 C 2.84375 -6.453125 2.9375 -6.453125 2.9375 -6.3125 C 2.9375 -6.28125 2.9375 -6.25 2.90625 -6.125 L 1.5625 -0.78125 C 1.46875 -0.390625 1.453125 -0.3125 0.65625 -0.3125 C 0.484375 -0.3125 0.390625 -0.3125 0.390625 -0.109375 C 0.390625 0 0.484375 0 0.65625 0 L 5.28125 0 C 5.515625 0 5.515625 0 5.578125 -0.171875 L 6.375 -2.328125 C 6.40625 -2.4375 6.40625 -2.453125 6.40625 -2.46875 C 6.40625 -2.5 6.375 -2.578125 6.296875 -2.578125 C 6.203125 -2.578125 6.1875 -2.515625 6.125 -2.359375 C 5.78125 -1.453125 5.34375 -0.3125 3.625 -0.3125 L 2.6875 -0.3125 C 2.546875 -0.3125 2.515625 -0.3125 2.46875 -0.3125 C 2.359375 -0.328125 2.328125 -0.34375 2.328125 -0.421875 C 2.328125 -0.453125 2.328125 -0.46875 2.375 -0.640625 Z M 3.734375 -6.03125 "/>
</symbol>
<symbol overflow="visible" id="glyph2-0">
<path style="stroke:none;" d=""/>
</symbol>
<symbol overflow="visible" id="glyph2-1">
<path style="stroke:none;" d="M 4.40625 -6.953125 C 4.34375 -7.09375 4.3125 -7.140625 4.140625 -7.140625 C 3.984375 -7.140625 3.953125 -7.09375 3.890625 -6.953125 L 0.515625 -0.203125 C 0.46875 -0.109375 0.46875 -0.09375 0.46875 -0.078125 C 0.46875 0 0.53125 0 0.6875 0 L 7.609375 0 C 7.765625 0 7.828125 0 7.828125 -0.078125 C 7.828125 -0.09375 7.828125 -0.109375 7.78125 -0.203125 Z M 3.828125 -6.140625 L 6.515625 -0.75 L 1.140625 -0.75 Z M 3.828125 -6.140625 "/>
</symbol>
</g>
<clipPath id="clip1">
  <path d="M 110 3 L 129.378906 3 L 129.378906 41 L 110 41 Z M 110 3 "/>
</clipPath>
<clipPath id="clip2">
  <path d="M 105 0 L 129.378906 0 L 129.378906 47 L 105 47 Z M 105 0 "/>
</clipPath>
</defs>
<g id="surface1">
<path style=" stroke:none;fill-rule:nonzero;fill:rgb(100%,89.411926%,78.431702%);fill-opacity:1;" d="M 0 155.785156 L 129.378906 155.785156 L 129.378906 0 L 0 0 Z M 0 155.785156 "/>
<path style="fill-rule:nonzero;fill:rgb(50%,50%,50%);fill-opacity:1;stroke-width:0.3985;stroke-linecap:butt;stroke-linejoin:miter;stroke:rgb(0%,0%,0%);stroke-opacity:1;stroke-miterlimit:10;" d="M 9.213 110.555 C 9.213 120.730781 5.088 128.980781 -0.00184375 128.980781 C -5.087781 128.980781 -9.212781 120.730781 -9.212781 110.555 C -9.212781 100.379219 -5.087781 92.129219 -0.00184375 92.129219 C 5.088 92.129219 9.213 100.379219 9.213 110.555 Z M 9.213 110.555 " transform="matrix(1,0,0,-1,9.412,132.555)"/>
<g clip-path="url(#clip1)" clip-rule="nonzero">
<path style=" stroke:none;fill-rule:nonzero;fill:rgb(50%,50%,50%);fill-opacity:1;" d="M 129.179688 22 C 129.179688 11.824219 125.054688 3.574219 119.96875 3.574219 C 114.878906 3.574219 110.753906 11.824219 110.753906 22 C 110.753906 32.175781 114.878906 40.425781 119.96875 40.425781 C 125.054688 40.425781 129.179688 32.175781 129.179688 22 Z M 129.179688 22 "/>
</g>
<g clip-path="url(#clip2)" clip-rule="nonzero">
<path style="fill:none;stroke-width:0.3985;stroke-linecap:butt;stroke-linejoin:miter;stroke:rgb(0%,0%,0%);stroke-opacity:1;stroke-miterlimit:10;" d="M 119.767687 110.555 C 119.767687 120.730781 115.642687 128.980781 110.55675 128.980781 C 105.466906 128.980781 101.341906 120.730781 101.341906 110.555 C 101.341906 100.379219 105.466906 92.129219 110.55675 92.129219 C 115.642687 92.129219 119.767687 100.379219 119.767687 110.555 Z M 119.767687 110.555 " transform="matrix(1,0,0,-1,9.412,132.555)"/>
</g>
<path style="fill:none;stroke-width:1.49442;stroke-linecap:butt;stroke-linejoin:miter;stroke:rgb(100%,0%,0%);stroke-opacity:1;stroke-dasharray:2.98883,2.98883;stroke-miterlimit:10;" d="M -0.00184375 107.789375 L 106.916125 107.789375 " transform="matrix(1,0,0,-1,9.412,132.555)"/>
<path style=" stroke:none;fill-rule:nonzero;fill:rgb(100%,0%,0%);fill-opacity:1;" d="M 119.964844 24.765625 L 114.144531 21.859375 L 116.328125 24.765625 L 114.144531 27.675781 "/>
<path style="fill:none;stroke-width:1.49442;stroke-linecap:butt;stroke-linejoin:miter;stroke:rgb(100%,0%,0%);stroke-opacity:1;stroke-dasharray:2.98883,2.98883;stroke-miterlimit:10;" d="M 110.552844 113.316719 L 3.634875 113.316719 " transform="matrix(1,0,0,-1,9.412,132.555)"/>
<path style=" stroke:none;fill-rule:nonzero;fill:rgb(100%,0%,0%);fill-opacity:1;" d="M 9.410156 19.238281 L 15.230469 22.148438 L 13.046875 19.238281 L 15.230469 16.332031 "/>
<g style="fill:rgb(100%,0%,0%);fill-opacity:1;">
  <use xlink:href="#glyph0-1" x="54.596" y="7.815"/>
</g>
<path style="fill:none;stroke-width:0.398;stroke-linecap:butt;stroke-linejoin:miter;stroke:rgb(100%,0%,0%);stroke-opacity:1;stroke-miterlimit:10;" d="M 0.00165625 0.00090625 L 3.970406 0.00090625 " transform="matrix(1,0,0,-1,54.596,9.247)"/>
<g style="fill:rgb(100%,0%,0%);fill-opacity:1;">
  <use xlink:href="#glyph0-2" x="54.596" y="15.173"/>
</g>
<g style="fill:rgb(100%,0%,0%);fill-opacity:1;">
  <use xlink:href="#glyph1-1" x="59.762" y="11.738"/>
</g>
<g style="fill:rgb(100%,0%,0%);fill-opacity:1;">
  <use xlink:href="#glyph2-1" x="64.073813" y="11.738"/>
</g>
<g style="fill:rgb(100%,0%,0%);fill-opacity:1;">
  <use xlink:href="#glyph1-2" x="72.375648" y="11.738"/>
</g>
<path style="fill:none;stroke-width:0.79701;stroke-linecap:butt;stroke-linejoin:miter;stroke:rgb(0%,0%,0%);stroke-opacity:1;stroke-miterlimit:10;" d="M 0.798937 86.597969 L 109.755969 86.597969 " transform="matrix(1,0,0,-1,9.412,132.555)"/>
<path style="fill:none;stroke-width:0.79701;stroke-linecap:round;stroke-linejoin:round;stroke:rgb(0%,0%,0%);stroke-opacity:1;stroke-miterlimit:10;" d="M -2.548875 3.110006 C -2.084031 1.242819 -1.044969 0.363912 0.00190625 0.00063125 C -1.044969 -0.36265 -2.084031 -1.245463 -2.548875 -3.11265 " transform="matrix(-1,0,0,1,9.8105,45.9564)"/>
<path style="fill:none;stroke-width:0.79701;stroke-linecap:round;stroke-linejoin:round;stroke:rgb(0%,0%,0%);stroke-opacity:1;stroke-miterlimit:10;" d="M -2.549375 3.11265 C -2.084531 1.245463 -1.045469 0.36265 0.00140625 -0.00063125 C -1.045469 -0.363912 -2.084531 -1.242819 -2.549375 -3.110006 " transform="matrix(1,0,0,-1,119.565,45.9564)"/>
<g style="fill:rgb(0%,0%,0%);fill-opacity:1;">
  <use xlink:href="#glyph1-3" x="61.297" y="42.238"/>
</g>
</g>
</svg>

<svg data-optimized="true" xmlns="http://www.w3.org/2000/svg" xmlns:xlink="http://www.w3.org/1999/xlink" width="172.503" height="207.713" viewBox="0 0 129.377 155.785"><defs><symbol id="c" overflow="visible"><path d="M2.328-4.437c0-.188 0-.188-.203-.188-.453.438-1.078.438-1.36.438v.25c.157 0 .626 0 1-.188v3.547c0 .234 0 .328-.687.328H.812V0c.125 0 .985-.031 1.235-.031.219 0 1.094.031 1.25.031v-.25H3.03c-.703 0-.703-.094-.703-.328Zm0 0" style="stroke:none"/></symbol><symbol id="d" overflow="visible"><path d="M3.516-1.266H3.28c-.015.157-.094.563-.187.625-.047.047-.578.047-.688.047H1.125c.734-.64.984-.843 1.39-1.172.516-.406 1-.843 1-1.5 0-.843-.734-1.359-1.624-1.359-.86 0-1.453.61-1.453 1.25 0 .344.296.39.375.39.156 0 .359-.124.359-.374 0-.125-.047-.375-.406-.375.218-.485.687-.641 1.015-.641.703 0 1.063.547 1.063 1.11 0 .609-.438 1.078-.656 1.328L.516-.266C.437-.203.437-.187.437 0h2.876Zm0 0" style="stroke:none"/></symbol><symbol id="e" overflow="visible"><path d="M3.953-3.781c-.172 0-.297 0-.437.125a.53.53 0 0 0-.188.39c0 .25.188.36.375.36.281 0 .547-.25.547-.64 0-.485-.469-.86-1.172-.86-1.344 0-2.672 1.422-2.672 2.828C.406-.672.984.109 2.031.109c1.422 0 2.25-1.062 2.25-1.171 0-.063-.047-.141-.11-.141-.062 0-.077.031-.14.11-.781.984-1.875.984-1.984.984-.625 0-.906-.485-.906-1.094 0-.406.203-1.375.547-1.984.312-.579.859-1 1.406-1 .328 0 .719.125.86.406m0 0" style="stroke:none"/></symbol><symbol id="g" overflow="visible"><path d="M2.047-3.984h.937c.204 0 .313 0 .313-.203 0-.11-.11-.11-.281-.11H2.14c.359-1.422.406-1.61.406-1.672 0-.172-.125-.265-.297-.265-.031 0-.312 0-.39.359l-.391 1.578H.53c-.203 0-.297 0-.297.188 0 .125.078.125.282.125h.875C.67-1.156.625-.984.625-.812c0 .546.375.921.922.921 1.016 0 1.578-1.453 1.578-1.53 0-.11-.078-.11-.11-.11-.093 0-.109.031-.156.14C2.438-.344 1.906-.109 1.563-.109c-.204 0-.313-.125-.313-.453 0-.25.031-.313.063-.485Zm0 0" style="stroke:none"/></symbol><symbol id="h" overflow="visible"><path d="M3.734-6.031c.079-.36.11-.469 1.047-.469.297 0 .375 0 .375-.187 0-.125-.11-.125-.156-.125-.328 0-1.14.03-1.469.03-.297 0-1.031-.03-1.328-.03-.062 0-.187 0-.187.203 0 .109.093.109.28.109.017 0 .204 0 .376.016.172.03.265.03.265.172 0 .03 0 .062-.03.187L1.562-.781c-.094.39-.11.469-.907.469-.172 0-.265 0-.265.203C.39 0 .484 0 .656 0h4.625c.235 0 .235 0 .297-.172l.797-2.156c.031-.11.031-.125.031-.14 0-.032-.031-.11-.11-.11-.093 0-.109.062-.171.219-.344.906-.781 2.047-2.5 2.047H2.468c-.109-.016-.14-.032-.14-.11 0-.031 0-.047.047-.219Zm0 0" style="stroke:none"/></symbol><symbol id="f" overflow="visible"><path d="M4.406-6.953c-.062-.14-.093-.188-.265-.188-.157 0-.188.047-.25.188L.516-.203c-.047.094-.047.11-.047.125C.469 0 .53 0 .688 0h6.921c.157 0 .22 0 .22-.078 0-.016 0-.031-.048-.125Zm-.578.812L6.516-.75H1.14Zm0 0" style="stroke:none"/></symbol><clipPath id="a"><path d="M110 3h19.379v38H110Zm0 0"/></clipPath><clipPath id="b"><path d="M105 0h24.379v47H105Zm0 0"/></clipPath></defs><path d="M0 155.785h129.379V0H0Zm0 0" style="stroke:none;fill-rule:nonzero;fill:#ffe4c8;fill-opacity:1"/><path d="M9.213 110.555c0 10.176-4.125 18.426-9.215 18.426-5.086 0-9.21-8.25-9.21-18.426s4.124-18.426 9.21-18.426c5.09 0 9.215 8.25 9.215 18.426Zm0 0" style="fill-rule:nonzero;fill:gray;fill-opacity:1;stroke-width:.3985;stroke-linecap:butt;stroke-linejoin:miter;stroke:#000;stroke-opacity:1;stroke-miterlimit:10" transform="matrix(1 0 0 -1 9.412 132.555)"/><g clip-path="url(#a)"><path d="M129.18 22c0-10.176-4.125-18.426-9.211-18.426-5.09 0-9.215 8.25-9.215 18.426s4.125 18.426 9.215 18.426c5.086 0 9.21-8.25 9.21-18.426m0 0" style="stroke:none;fill-rule:nonzero;fill:gray;fill-opacity:1"/></g><g clip-path="url(#b)"><path d="M119.768 110.555c0 10.176-4.125 18.426-9.211 18.426-5.09 0-9.215-8.25-9.215-18.426s4.125-18.426 9.215-18.426c5.086 0 9.21 8.25 9.21 18.426Zm0 0" style="fill:none;stroke-width:.3985;stroke-linecap:butt;stroke-linejoin:miter;stroke:#000;stroke-opacity:1;stroke-miterlimit:10" transform="matrix(1 0 0 -1 9.412 132.555)"/></g><path d="M-.002 107.79h106.918" style="fill:none;stroke-width:1.49442;stroke-linecap:butt;stroke-linejoin:miter;stroke:red;stroke-opacity:1;stroke-dasharray:2.98883,2.98883;stroke-miterlimit:10" transform="matrix(1 0 0 -1 9.412 132.555)"/><path d="m119.965 24.766-5.82-2.907 2.183 2.907-2.183 2.91" style="stroke:none;fill-rule:nonzero;fill:red;fill-opacity:1"/><path d="M110.553 113.317H3.635" style="fill:none;stroke-width:1.49442;stroke-linecap:butt;stroke-linejoin:miter;stroke:red;stroke-opacity:1;stroke-dasharray:2.98883,2.98883;stroke-miterlimit:10" transform="matrix(1 0 0 -1 9.412 132.555)"/><path d="m9.41 19.238 5.82 2.91-2.183-2.91 2.183-2.906" style="stroke:none;fill-rule:nonzero;fill:red;fill-opacity:1"/><use xlink:href="#c" x="54.596" y="7.815" style="fill:red;fill-opacity:1"/><path d="M.002 0H3.97" style="fill:none;stroke-width:.398;stroke-linecap:butt;stroke-linejoin:miter;stroke:red;stroke-opacity:1;stroke-miterlimit:10" transform="matrix(1 0 0 -1 54.596 9.247)"/><use xlink:href="#d" x="54.596" y="15.173" style="fill:red;fill-opacity:1"/><use xlink:href="#e" x="59.762" y="11.738" style="fill:red;fill-opacity:1"/><use xlink:href="#f" x="64.074" y="11.738" style="fill:red;fill-opacity:1"/><use xlink:href="#g" x="72.376" y="11.738" style="fill:red;fill-opacity:1"/><path d="M.799 86.598h108.957" style="fill:none;stroke-width:.79701;stroke-linecap:butt;stroke-linejoin:miter;stroke:#000;stroke-opacity:1;stroke-miterlimit:10" transform="matrix(1 0 0 -1 9.412 132.555)"/><path d="M-2.549 3.11C-2.084 1.243-1.045.364.001 0c-1.046-.363-2.085-1.245-2.55-3.113" style="fill:none;stroke-width:.79701;stroke-linecap:round;stroke-linejoin:round;stroke:#000;stroke-opacity:1;stroke-miterlimit:10" transform="matrix(-1 0 0 1 9.81 45.956)"/><path d="M-2.55 3.113C-2.084 1.245-1.044.363.002-.001c-1.046-.363-2.086-1.242-2.55-3.109" style="fill:none;stroke-width:.79701;stroke-linecap:round;stroke-linejoin:round;stroke:#000;stroke-opacity:1;stroke-miterlimit:10" transform="matrix(1 0 0 -1 119.565 45.956)"/><use xlink:href="#h" x="61.297" y="42.238" style="fill:#000;fill-opacity:1"/></svg>
